icons/desktop/20/stocks-20.svg

<svg width="20" height="20" viewBox="0 0 20 20" fill="none" xmlns="http://www.w3.org/2000/svg">
<path d="M2.125 2C2.60825 2 3 2.39175 3 2.875V14.625C3 15.3848 3.61525 16 4.375 16H17.125C17.6082 16 18 16.3918 18 16.875C18 17.3582 17.6082 17.75 17.125 17.75H4.375C2.64875 17.75 1.25 16.3512 1.25 14.625V2.875C1.25 2.39175 1.64175 2 2.125 2Z" fill="black"/>
<path d="M16.5059 6.06836C16.8479 5.72836 17.4032 5.72636 17.7432 6.06836C18.0848 6.41029 18.0858 6.96373 17.7432 7.30566L13.1475 11.9033C12.3175 12.7293 10.9696 12.7293 10.1416 11.9033L9.00195 10.7637C8.81104 10.5729 8.66359 10.5727 8.47266 10.7637L6.49316 12.7441C6.32217 12.9151 6.098 13 5.875 13C5.651 13 5.42686 12.9151 5.25586 12.7441C4.91486 12.4021 4.91486 11.8479 5.25586 11.5059L7.23633 9.52637C8.06633 8.69837 9.41219 8.69837 10.2422 9.52637L11.3809 10.665C11.5259 10.811 11.7651 10.812 11.9111 10.665L16.5059 6.06836Z" fill="black"/>
</svg>

<!-- This Source Code Form is subject to the terms of the Mozilla Public
   - License, v. 2.0. If a copy of the MPL was not distributed with this
   - file, You can obtain one at http://mozilla.org/MPL/2.0/. -->
<svg xmlns="http://www.w3.org/2000/svg" width="20" height="20" fill="context-fill" fill-opacity="context-fill-opacity" viewBox="0 0 20 20">
    <path d="M2.125 2c.483 0 .875.392.875.875v11.75C3 15.385 3.615 16 4.375 16h12.75a.875.875 0 0 1 0 1.75H4.375a3.125 3.125 0 0 1-3.125-3.125V2.875c0-.483.392-.875.875-.875" />
    <path d="M16.506 6.068a.876.876 0 0 1 1.237 1.238l-4.595 4.597a2.133 2.133 0 0 1-3.006 0l-1.14-1.14c-.191-.19-.338-.19-.53 0l-1.979 1.981a.87.87 0 0 1-1.237 0 .877.877 0 0 1 0-1.238l1.98-1.98a2.13 2.13 0 0 1 3.006 0l1.139 1.139a.375.375 0 0 0 .53 0z" />
</svg>
